X:1
T:Qualunche giostra
T:Qualunche giostra
T:Giovanni Giacomo de Antiquis
T:Source: Primo libro delle villanelle a 3 voci---Venetia---A.Gardano---1574. Editor : André Vierendeels (14/03/16).
T:Notes : Original clefs : C1, C2, C4 Editorial accidentals above the staff "Alla napolitana" Music by composers from Bari, collected by G.de Antiquis 
T:©
T:©
C:Giovanni Giacomo de Antiquis
Z:©
%%score [ 1 2 3 ]
L:1/8
Q:1/4=120
M:4/4
K:C
V:1 treble nm="Soprano" snm="S"
V:2 treble nm="Alto" snm="A"
V:3 treble-8 nm="Tenor" snm="T"
V:1
 A4 A2 A2 | A2 c2 B4 | A2 c4 B2 | A4 B4 ::[M:3/4] G2 G3 A |[M:4/4] B3 c d4 | d4 A3 B | c3 d e2 dc | %8
w: 1)Qua- lun- che|gio- str'all' a-|mo- ro- sa'im-|pre- sa,|1)si ve- ste|co- me vol,|si ve- ste|co- * * me _|
w: 2)Co- si sco-|pra'il suo'ar- dor|as- sai o|po- co,|2)sot- t'al- cun|se- gn'o di|ros- s'o ma-|ri- * * * *|
w: 3)Ne si fus-|se get- ta-|to mez' al|fo- co,|3)io can- ge-|ro mai piu|vo glia'o con|si- * * * *|
w: 4)E giu- ro|mo con cor|pu- ro'e sin-|ce- ro,|4)e fin che|vi- vo mon-|stra- ro con|ve- * * * *|
 B4 B2 d2- | d2 A4 c2- | c2 G4 B2- | B2 G2 G2 F2 | E4 D4 | z4 z2 G2 | D2 F2 E2 E2 | D4 z2 D2 | %16
w: vol, si ve-|1)- ste co-|* me vol|_ bi- gi'o ver-|mi- glio,|ma'l|1)mio co- lor sa-|ra, ma'l|
w: glio, sot- t'al-|2) cun se-|* gn'o di|_ ros- s'o ma-|ri- glio,|ma'l|2)se- gno mio sa-|ra, ma'l|
w: glio, io can-|3) ge- ro|_ mai piu|_ vo- glia'o con-|si- glio,|che|3)non sia'l mio co-|lor, che|
w: ro, e fin|4) che vi-|* vo mon-|stra- ro con ve-|* ro,|che'l|4)mio co- lor sa-|ra, che'l|
 G3 G FE FG | A2 A2 G2 F2 | E4 D4 :| %19
w: mio co- lor _ sa- *|ra ne- ro'e par-|di- glio.|
w: se- gno mio _ sa- *|ra ne- ro'e ver-|mi- glio.|
w: non sia'l mio _ co- *|lor ne- ro'e ver-|mi- glio.|
w: mio co- lor _ sa- *|ra par- di- glio'e|ne- ro.|
V:2
 F4 F2 F2 | F2 A2 G4 | F2 E4 G2 |"^#" G2 F2 G4 ::[M:3/4] D2 ED EF |[M:4/4] G4 z2 D2 | D3 E F3 G | %7
w: 1)Qua- lun- che|gio- str'all' a-|mo- ro- sa'im-|pe- * sa,|1)si ve- * * *|ste si|ve- ste co- me|
w: 1) _ _|||||||
w: 2)Co- si sco-|pra'il suo'ar- dor|as- sai o|po- * co,|2)sol- t'al- * * *|cun se-|gn'o di ros- s'o|
 A4 E4 | G4 D4 | F4 C4 | E4 G4 | E6 D2- | D2 C2 D2 A2 | D2 F2 E2 E2 | D4 z2 C2 | G,2 B,2 A,2 A,2 | %16
w: vol, si|ve- ste|1)co- me|vol bi-|g'io ver-|* mi- glio, ma'l|mio co- lor sa-|1)ra, ma'l|mio co- lor sa-|
w: |||||||||
w: ma- ri-|glio, sot-|2)t'al- cun|se- gn'o|di ros-|* * s'o ma-|ri- * * gli-|2)o, ma'l|se- gno mio sa-|
 G,A,B,C D2 CB, | A,2 A,2 B,2 D2- | D2 ^C2 D4 :| %19
w: ra _ _ _ _ ne- *|ro e par- di-|* * glio.|
w: |||
w: ra _ _ _ _ ne- *|ro e ver- mi-|* * glio.|
V:3
 d4 d2 d2 | d2 A2 e4 | d2 c4 G2 | d4 G4 ::[M:3/4] z4 x2 |[M:4/4] z2 G2 G3 A | B3 c d2 A2 | %7
w: 3)Ne si fus-|se get- ta-|to mez' al|fo- co,||3)io can- ge-|ro mai piu vo-|
w: 4)E giu- ro|mo con cor|pu- ro'e sin-|ce- ro,||4)e fin che|vi- vo mon- stra-|
 A3 B c3 d | e4 B4 | d4 A4 | c2 c2 G4 | z2 G2 G2 D2 | A4 D4 | z2 d2 A2 c2 | B2 B2 A4 | %15
w: glia'o con- si- *|glio, io|3)can- ge-|ro mai piu|vo- glia'o con|si- glio,|che non sia'l|3)mio co- lor,|
w: ro con ve- *|ro, e|4)fin che|_ vi- vo|mon strar' con|ve- ro,|che'l mio co-|4)lor sa- ra,|
 z2 G2 D2 F2 | E2 E2 D4 | F4 G2 D2 | A4 D4 :| %19
w: che non sia'l|mio co- lor|ne- ro'e ver-|mi- glio.|
w: che'l mio co-|lor sa- ra|par- di- glio'e|ne- ro.|

